X:21 
T:GB/7b/21C (No title given)
%%VWML:GB-7b-21C-0
F:http://www.vwml.org/record/GB/7b/21C
C:Transcribed by Simon Furey and Lewis Jones
L:1/8
Q:1/4=120
M:4/4
I:linebreak $
K:F
A>B c>A B2 B2 | A>B c>A G2 G2 | A>B c>A B2 A>B | c2 C2 F4 ||$ A2 F2 B4 | A2 F2 G4 | A>B c>A B2 A>B | c2 C2 F4 |]

